packages/foundations/assets/icons/functional/images/transportation/scooter_16.svg

<svg width="16" height="16" viewBox="0 0 16 16" fill="none" xmlns="http://www.w3.org/2000/svg">
<g clip-path="url(#clip0_187_938)">
<path fill-rule="evenodd" clip-rule="evenodd" d="M11.8226 3.20502C12.7864 3.20502 13.596 4.08765 13.596 4.98716L13.5999 7.19494C13.5999 7.37086 13.542 7.54083 13.4366 7.67932L10.1745 10.9765C10.0494 11.1027 9.92067 11.1949 9.60667 11.1949C9.39734 11.1949 8.32979 11.1949 6.40401 11.1949C6.39406 12.07 5.66021 12.7949 4.79994 12.7949C3.93966 12.7949 3.19994 12.0869 3.20499 11.1949H2.4001C1.9663 11.1949 1.60548 10.8856 1.60548 10.3968L1.6001 9.34637C1.6001 7.77865 2.83019 6.49809 4.37782 6.4171L6.1153 6.41302L5.89914 5.59334L3.9918 5.59379C3.51467 5.59334 3.19994 5.20406 3.19994 4.79379C3.19994 4.38352 3.49926 4.00502 3.9918 3.99379H6.0716C6.62468 3.99379 7.18629 4.41863 7.37857 4.94562L8.61514 9.61254H9.27354L11.9991 6.86534L11.9999 5.1155C11.9999 4.94562 11.9559 4.79379 11.7397 4.79379L10.4056 4.78668C9.96374 4.78668 9.60667 4.43562 9.60667 3.99379C9.60667 3.58352 9.86535 3.20502 10.4056 3.20502H11.8226ZM12.7999 9.59494C13.6836 9.59494 14.3999 10.3113 14.3999 11.1949C14.3999 12.0786 13.6836 12.7949 12.7999 12.7949C11.9163 12.7949 11.1999 12.0786 11.1999 11.1949C11.1999 10.3113 11.9163 9.59494 12.7999 9.59494ZM6.54268 7.99998L4.53859 8C3.84093 8 3.19994 8.67092 3.20499 9.23133C3.20162 9.34164 3.19994 9.46871 3.19994 9.61254L6.9601 9.61302L6.54268 7.99998Z" fill="#1A1C1F"/>
</g>
<defs>
<clipPath id="clip0_187_938">
<rect width="16" height="16" fill="white"/>
</clipPath>
</defs>
</svg>

<svg xmlns="http://www.w3.org/2000/svg" width="16" height="16" fill="none"><g clip-path="url(#a)"><path fill="#1A1C1F" fill-rule="evenodd" d="M11.823 3.205c.963 0 1.773.883 1.773 1.782l.004 2.208a.8.8 0 0 1-.163.484l-3.262 3.297c-.126.127-.254.219-.568.219H6.404c-.01.875-.744 1.6-1.604 1.6s-1.6-.708-1.595-1.6H2.4c-.434 0-.795-.31-.795-.798L1.6 9.347a2.934 2.934 0 0 1 2.778-2.93l1.737-.004-.216-.82H3.992a.79.79 0 0 1-.792-.8c0-.41.3-.788.792-.8h2.08c.553 0 1.114.426 1.307.953l1.236 4.667h.659l2.725-2.748v-1.75c0-.17-.043-.321-.26-.321l-1.333-.007a.793.793 0 0 1-.8-.793c0-.41.26-.789.8-.789zm.977 6.39a1.6 1.6 0 1 1 0 3.2 1.6 1.6 0 0 1 0-3.2M6.543 8H4.539c-.698 0-1.34.67-1.334 1.231q-.005.165-.005.382h3.76z" clip-rule="evenodd"/></g><defs><clipPath id="a"><path fill="#fff" d="M0 0h16v16H0z"/></clipPath></defs></svg>
